!!!OTL: IM WINDSGERAEUSCH IN STILLER NACHT
!!!ARE: Europa, Mitteleuropa, Deutschland
!!!SCT: B0242
!!!YEM: Copyright 1995, estate of Helmut Schaffrath.
**kern
*ICvox
*Ivox
*M3/4
*k[b-e-a-]
*E-:
{8B-
=1
8.e-
16e-
4.e-
8B-
=2
8.f
16f
4.f}
{8f
=3
8g
8e-
4c
4d
=4
2e-
8r}
{8g
=5
8.g
16f
4.f
8f
=6
8.g
16f
4.f}
{8f
=7
8g
8e-
4c
4f
=8
2B-
8r}
{8b-
=9
12b-
12a-
12f
4.f
8b-
=10
12cc
12b-
12g
4g
8r}
{8ee-
=11
4.ee-
16dd
16cc
16cc
16b-
16b-
16an
=12
2b-}
{4b-
=13
16b-
16a-
16g
16f
4.f
8b-
=14
16cc
16b-
16a-
16g
4.g}
{8ee-
=15
4.ee-
16dd
16cc
16cc
16b-
16b-
16an
=16
2b-}
{4b-
=17
4.cc
8cc
8cc
8d
=18
8f
8e-
4e-
8r}
{8b-
=19
4.cc
8cc
8cc
8d
=20
8f
8e-
4e-
4r}
=21
{8.ee-
16dd
4dd
4r
=22
8.ff
16ee-
4ee-
8r}
{8ee-
=23
4.ee-
16dd
16cc
16b-
16a-
16g
16f
=24
2e-
8f
8e-
=25
2e-
8r}
==
!!!AGN: Tageszeiten - Lied, Nacht
!!!ONB: ESAC (Essen Associative Code) Database: BOEHME
!!!AMT: simple triple
!!!AIN: vox
!!!EED: Helmut Schaffrath
!!!EEV: 1.0
*-
